Numix-Light/scalable/devices/network-server-symbolic.svg

<?xml version="1.0" encoding="UTF-8" standalone="no"?>
<!-- Created with Inkscape (http://www.inkscape.org/) -->

<svg
   xmlns:dc="http://purl.org/dc/elements/1.1/"
   xmlns:cc="http://creativecommons.org/ns#"
   xmlns:rdf="http://www.w3.org/1999/02/22-rdf-syntax-ns#"
   xmlns:svg="http://www.w3.org/2000/svg"
   xmlns="http://www.w3.org/2000/svg"
   xmlns:sodipodi="http://sodipodi.sourceforge.net/DTD/sodipodi-0.dtd"
   xmlns:inkscape="http://www.inkscape.org/namespaces/inkscape"
   id="svg7384"
   style="enable-background:new"
   height="16"
   width="16"
   version="1.1"
   inkscape:version="0.91 r"
   sodipodi:docname="network-server-symbolic.svg">
  <sodipodi:namedview
     pagecolor="#ffffff"
     bordercolor="#666666"
     borderopacity="1"
     objecttolerance="10"
     gridtolerance="10"
     guidetolerance="10"
     inkscape:pageopacity="0"
     inkscape:pageshadow="2"
     inkscape:window-width="1920"
     inkscape:window-height="1056"
     id="namedview10"
     showgrid="true"
     inkscape:zoom="29.5"
     inkscape:cx="9.6304962"
     inkscape:cy="3.9719177"
     inkscape:window-x="0"
     inkscape:window-y="24"
     inkscape:window-maximized="1"
     inkscape:current-layer="svg7384">
    <inkscape:grid
       type="xygrid"
       id="grid4173" />
  </sodipodi:namedview>
  <metadata
     id="metadata90">
    <rdf:RDF>
      <cc:Work
         rdf:about="">
        <dc:format>image/svg+xml</dc:format>
        <dc:type
           rdf:resource="http://purl.org/dc/dcmitype/StillImage" />
        <dc:title>Paper Symbolic Icon Theme</dc:title>
      </cc:Work>
    </rdf:RDF>
  </metadata>
  <title
     id="title8473">Paper Symbolic Icon Theme</title>
  <defs
     id="defs7386">
    <filter
       id="filter7554"
       style="color-interpolation-filters:sRGB">
      <feBlend
         id="feBlend7556"
         in2="BackgroundImage"
         mode="darken" />
    </filter>
  </defs>
  <path
     style="fill:#353535;fill-opacity:1;stroke:none"
     d="M 1.625,1 C 1.27875,1 1,1.2787499 1,1.625 l 0,1.75 C 1,3.7212501 1.27875,4 1.625,4 L 6,4 6,6 1.625,6 C 1.27875,6 1,6.2787499 1,6.625 l 0,1.75 C 1,8.7212501 1.27875,9 1.625,9 L 6,9 6,11 1.625,11 C 1.27875,11 1,11.27875 1,11.625 l 0,1.75 C 1,13.72125 1.27875,14 1.625,14 l 12.75,0 C 14.72125,14 15,13.72125 15,13.375 l 0,-1.75 C 15,11.27875 14.72125,11 14.375,11 L 10,11 10,9 14.375,9 C 14.72125,9 15,8.7212501 15,8.375 l 0,-1.75 C 15,6.2787499 14.72125,6 14.375,6 L 10,6 10,4 14.375,4 C 14.72125,4 15,3.7212501 15,3.375 l 0,-1.75 C 15,1.2787499 14.72125,1 14.375,1 Z M 2,2 9.5,2 9.5,3 2,3 Z m 9,0 c 0.276142,0 0.5,0.2238576 0.5,0.5 C 11.5,2.7761424 11.276142,3 11,3 10.723858,3 10.5,2.7761424 10.5,2.5 10.5,2.2238576 10.723858,2 11,2 Z m 2,0 c 0.276142,0 0.5,0.2238576 0.5,0.5 C 13.5,2.7761424 13.276142,3 13,3 12.723858,3 12.5,2.7761424 12.5,2.5 12.5,2.2238576 12.723858,2 13,2 Z M 2,7 9.5,7 9.5,8 2,8 Z m 9,0 c 0.276142,0 0.5,0.2238576 0.5,0.5 C 11.5,7.7761424 11.276142,8 11,8 10.723858,8 10.5,7.7761424 10.5,7.5 10.5,7.2238576 10.723858,7 11,7 Z m 2,0 c 0.276142,0 0.5,0.2238576 0.5,0.5 C 13.5,7.7761424 13.276142,8 13,8 12.723858,8 12.5,7.7761424 12.5,7.5 12.5,7.2238576 12.723858,7 13,7 Z m -11,5 7.5,0 0,1 -7.5,0 z m 9,0 c 0.276142,0 0.5,0.223858 0.5,0.5 0,0.276142 -0.223858,0.5 -0.5,0.5 -0.276142,0 -0.5,-0.223858 -0.5,-0.5 0,-0.276142 0.223858,-0.5 0.5,-0.5 z m 2,0 c 0.276142,0 0.5,0.223858 0.5,0.5 0,0.276142 -0.223858,0.5 -0.5,0.5 -0.276142,0 -0.5,-0.223858 -0.5,-0.5 0,-0.276142 0.223858,-0.5 0.5,-0.5 z"
     id="rect3804"
     inkscape:connector-curvature="0"
     sodipodi:nodetypes="ssssccssssccssssssssccssssccssssscccccsssssssssscccccsssssssssscccccssssssssss" />
  <g
     id="g4189"
     style="fill:#a31b1b;fill-opacity:1" />
</svg>

<!-- Created with Inkscape (http://www.inkscape.org/) -->
<svg xmlns="http://www.w3.org/2000/svg" viewBox="0 0 16 16" style="enable-background:new">
 <path d="m 1.625 1 c -0.346 0 -0.625 0.279 -0.625 0.625 l 0 1.75 c 0 0.346 0.279 0.625 0.625 0.625 l 4.375 0 0 2 -4.375 0 c -0.346 0 -0.625 0.279 -0.625 0.625 l 0 1.75 c 0 0.346 0.279 0.625 0.625 0.625 l 4.375 0 0 2 -4.375 0 c -0.346 0 -0.625 0.279 -0.625 0.625 l 0 1.75 c 0 0.346 0.279 0.625 0.625 0.625 l 12.75 0 c 0.346 0 0.625 -0.279 0.625 -0.625 l 0 -1.75 c 0 -0.346 -0.279 -0.625 -0.625 -0.625 l -4.375 0 0 -2 4.375 0 c 0.346 0 0.625 -0.279 0.625 -0.625 l 0 -1.75 c 0 -0.346 -0.279 -0.625 -0.625 -0.625 l -4.375 0 0 -2 4.375 0 c 0.346 0 0.625 -0.279 0.625 -0.625 l 0 -1.75 c 0 -0.346 -0.279 -0.625 -0.625 -0.625 m -12.375 1 7.5 0 0 1 -7.5 0 m 9 -1 c 0.276 0 0.5 0.224 0.5 0.5 c 0 0.276 -0.224 0.5 -0.5 0.5 -0.276 0 -0.5 -0.224 -0.5 -0.5 0 -0.276 0.224 -0.5 0.5 -0.5 m 2 0 c 0.276 0 0.5 0.224 0.5 0.5 c 0 0.276 -0.224 0.5 -0.5 0.5 -0.276 0 -0.5 -0.224 -0.5 -0.5 0 -0.276 0.224 -0.5 0.5 -0.5 m -11 5 7.5 0 0 1 -7.5 0 m 9 -1 c 0.276 0 0.5 0.224 0.5 0.5 c 0 0.276 -0.224 0.5 -0.5 0.5 -0.276 0 -0.5 -0.224 -0.5 -0.5 0 -0.276 0.224 -0.5 0.5 -0.5 m 2 0 c 0.276 0 0.5 0.224 0.5 0.5 c 0 0.276 -0.224 0.5 -0.5 0.5 -0.276 0 -0.5 -0.224 -0.5 -0.5 0 -0.276 0.224 -0.5 0.5 -0.5 m -11 5 7.5 0 0 1 -7.5 0 z m 9 0 c 0.276 0 0.5 0.224 0.5 0.5 0 0.276 -0.224 0.5 -0.5 0.5 -0.276 0 -0.5 -0.224 -0.5 -0.5 0 -0.276 0.224 -0.5 0.5 -0.5 z m 2 0 c 0.276 0 0.5 0.224 0.5 0.5 0 0.276 -0.224 0.5 -0.5 0.5 -0.276 0 -0.5 -0.224 -0.5 -0.5 0 -0.276 0.224 -0.5 0.5 -0.5 z" style="fill:#353535;fill-opacity:1;stroke:none"/>
</svg>
